inst/assets/svg/wi-hot.svg

<?xml version="1.0" encoding="UTF-8"?>
<svg xmlns="http://www.w3.org/2000/svg" xmlns:xlink="http://www.w3.org/1999/xlink" width="30pt" height="30pt" viewBox="0 0 30 30" version="1.1">
<g id="surface271">
<path style=" stroke:none;fill-rule:nonzero;fill:rgb(0%,0%,0%);fill-opacity:1;" d="M 4.140625 14.761719 C 4.140625 14.519531 4.230469 14.320313 4.410156 14.148438 C 4.578125 13.980469 4.789063 13.898438 5.03125 13.898438 L 7.089844 13.898438 C 7.328125 13.898438 7.53125 13.980469 7.691406 14.148438 C 7.859375 14.320313 7.941406 14.519531 7.941406 14.761719 C 7.941406 15.011719 7.859375 15.21875 7.691406 15.390625 C 7.519531 15.558594 7.320313 15.640625 7.089844 15.640625 L 5.03125 15.640625 C 4.78125 15.640625 4.570313 15.558594 4.398438 15.390625 C 4.21875 15.21875 4.140625 15.011719 4.140625 14.761719 Z M 7.058594 7.738281 C 7.058594 7.511719 7.140625 7.300781 7.300781 7.121094 C 7.5 6.960938 7.710938 6.871094 7.960938 6.871094 C 8.171875 6.871094 8.371094 6.949219 8.550781 7.121094 L 10 8.601563 C 10.171875 8.761719 10.25 8.960938 10.25 9.199219 C 10.25 9.441406 10.171875 9.640625 10 9.800781 C 9.828125 9.96875 9.640625 10.050781 9.398438 10.050781 C 9.140625 10.050781 8.941406 9.96875 8.789063 9.800781 L 7.289063 8.359375 C 7.148438 8.191406 7.058594 7.980469 7.058594 7.738281 Z M 9.671875 14.761719 C 9.671875 14.050781 9.808594 13.371094 10.101563 12.71875 C 10.378906 12.070313 10.769531 11.5 11.238281 11.03125 C 11.71875 10.558594 12.289063 10.179688 12.941406 9.898438 C 13.589844 9.621094 14.28125 9.46875 15 9.46875 C 15.960938 9.46875 16.839844 9.710938 17.660156 10.191406 C 18.480469 10.671875 19.128906 11.308594 19.601563 12.128906 C 20.070313 12.941406 20.308594 13.820313 20.308594 14.761719 C 20.308594 14.910156 20.300781 15.050781 20.28125 15.179688 C 20 15.011719 19.679688 14.929688 19.308594 14.929688 C 19.070313 14.929688 18.828125 14.980469 18.589844 15.078125 C 18.601563 15.011719 18.601563 14.898438 18.601563 14.761719 C 18.601563 13.78125 18.25 12.949219 17.539063 12.261719 C 16.828125 11.570313 15.980469 11.21875 14.988281 11.21875 C 14 11.21875 13.160156 11.570313 12.449219 12.261719 C 11.738281 12.949219 11.398438 13.78125 11.398438 14.761719 L 11.398438 14.941406 C 11.109375 14.960938 10.828125 15.039063 10.558594 15.191406 C 10.550781 15.199219 10.519531 15.21875 10.460938 15.261719 C 10.398438 15.300781 10.339844 15.351563 10.269531 15.398438 C 10.199219 15.449219 10.128906 15.511719 10.039063 15.589844 C 9.949219 15.671875 9.859375 15.75 9.78125 15.828125 C 9.699219 15.511719 9.671875 15.148438 9.671875 14.761719 Z M 9.699219 18.410156 L 9.699219 18.261719 C 9.691406 18.171875 9.699219 18.058594 9.71875 17.929688 C 9.769531 17.570313 9.910156 17.230469 10.140625 16.910156 C 10.269531 16.75 10.359375 16.640625 10.410156 16.601563 C 10.421875 16.578125 10.429688 16.558594 10.449219 16.539063 L 10.488281 16.5 C 10.519531 16.488281 10.558594 16.449219 10.609375 16.398438 C 10.628906 16.378906 10.660156 16.351563 10.691406 16.320313 C 10.71875 16.289063 10.75 16.28125 10.761719 16.261719 C 10.808594 16.210938 10.859375 16.179688 10.898438 16.160156 L 11.070313 16.050781 C 11.210938 15.960938 11.378906 15.910156 11.570313 15.910156 L 11.601563 15.910156 C 11.699219 15.910156 11.789063 15.921875 11.859375 15.941406 C 11.890625 15.949219 11.929688 15.96875 11.988281 16.011719 L 11.988281 16.019531 C 12.128906 16.078125 12.25 16.179688 12.328125 16.308594 C 12.410156 16.441406 12.460938 16.578125 12.460938 16.730469 C 12.460938 16.898438 12.410156 17.039063 12.320313 17.148438 C 12.261719 17.238281 12.179688 17.320313 12.101563 17.378906 C 12.078125 17.390625 12.058594 17.398438 12.039063 17.410156 C 12.019531 17.421875 12 17.429688 12 17.429688 L 11.941406 17.46875 C 11.898438 17.5 11.871094 17.53125 11.839844 17.550781 C 11.808594 17.570313 11.78125 17.609375 11.730469 17.660156 C 11.691406 17.710938 11.648438 17.75 11.621094 17.800781 C 11.589844 17.839844 11.558594 17.898438 11.53125 17.949219 C 11.5 18.011719 11.480469 18.070313 11.480469 18.121094 L 11.480469 18.269531 C 11.519531 18.421875 11.558594 18.539063 11.589844 18.628906 C 11.660156 18.769531 11.769531 18.910156 11.929688 19.070313 C 11.941406 19.089844 12.019531 19.171875 12.171875 19.320313 C 13.03125 20.101563 13.441406 20.941406 13.378906 21.820313 C 13.359375 22.121094 13.289063 22.410156 13.171875 22.691406 C 13.050781 22.96875 12.910156 23.199219 12.738281 23.390625 C 12.578125 23.578125 12.449219 23.71875 12.351563 23.820313 C 12.25 23.910156 12.171875 23.980469 12.101563 24.03125 C 12.089844 24.039063 12.070313 24.050781 12.039063 24.070313 C 12.011719 24.089844 11.980469 24.109375 11.96875 24.109375 C 11.890625 24.148438 11.820313 24.171875 11.75 24.179688 C 11.660156 24.191406 11.601563 24.199219 11.550781 24.199219 C 11.25 24.199219 11.011719 24.101563 10.839844 23.898438 C 10.699219 23.730469 10.640625 23.53125 10.660156 23.308594 C 10.679688 23.089844 10.789063 22.910156 10.988281 22.78125 L 11 22.75 C 11.011719 22.738281 11.03125 22.71875 11.050781 22.710938 C 11.070313 22.691406 11.089844 22.671875 11.121094 22.648438 C 11.148438 22.628906 11.179688 22.601563 11.199219 22.570313 C 11.230469 22.539063 11.261719 22.5 11.28125 22.46875 C 11.308594 22.429688 11.339844 22.390625 11.359375 22.351563 C 11.390625 22.308594 11.421875 22.261719 11.441406 22.210938 C 11.46875 22.160156 11.488281 22.109375 11.511719 22.058594 C 11.53125 22.011719 11.539063 21.960938 11.558594 21.898438 C 11.570313 21.839844 11.578125 21.78125 11.578125 21.730469 C 11.601563 21.53125 11.550781 21.328125 11.429688 21.128906 C 11.378906 21.019531 11.308594 20.910156 11.210938 20.800781 C 11.140625 20.71875 11.089844 20.671875 11.058594 20.640625 C 10.96875 20.53125 10.921875 20.46875 10.910156 20.460938 C 10.890625 20.449219 10.871094 20.429688 10.839844 20.398438 C 10.808594 20.371094 10.789063 20.359375 10.78125 20.351563 C 10.628906 20.210938 10.519531 20.089844 10.441406 19.988281 C 10.320313 19.828125 10.230469 19.730469 10.199219 19.671875 C 10.011719 19.410156 9.878906 19.148438 9.808594 18.890625 C 9.769531 18.75 9.738281 18.640625 9.730469 18.570313 C 9.730469 18.550781 9.71875 18.519531 9.710938 18.488281 C 9.699219 18.460938 9.699219 18.441406 9.699219 18.410156 Z M 13.578125 18.078125 C 13.578125 18.019531 13.578125 17.980469 13.589844 17.941406 C 13.609375 17.71875 13.679688 17.511719 13.789063 17.300781 C 13.898438 17.089844 14.011719 16.910156 14.140625 16.769531 C 14.269531 16.628906 14.390625 16.5 14.519531 16.390625 C 14.648438 16.28125 14.75 16.199219 14.828125 16.140625 L 14.949219 16.070313 C 15.101563 15.980469 15.269531 15.929688 15.449219 15.929688 C 15.558594 15.929688 15.660156 15.941406 15.75 15.960938 C 15.761719 15.960938 15.769531 15.96875 15.800781 15.980469 C 15.828125 16 15.851563 16.011719 15.859375 16.019531 C 15.871094 16.019531 15.878906 16.019531 15.890625 16.03125 C 15.898438 16.03125 15.921875 16.050781 15.960938 16.078125 C 16.160156 16.199219 16.28125 16.378906 16.339844 16.621094 C 16.339844 16.640625 16.339844 16.660156 16.339844 16.691406 C 16.339844 16.710938 16.339844 16.730469 16.339844 16.738281 C 16.339844 16.769531 16.328125 16.808594 16.320313 16.859375 C 16.308594 16.910156 16.300781 16.941406 16.300781 16.949219 C 16.230469 17.179688 16.089844 17.339844 15.878906 17.449219 C 15.550781 17.671875 15.371094 17.898438 15.351563 18.140625 C 15.339844 18.21875 15.339844 18.289063 15.351563 18.359375 C 15.371094 18.480469 15.429688 18.609375 15.519531 18.75 C 15.628906 18.910156 15.710938 19.019531 15.761719 19.070313 C 15.921875 19.230469 16.011719 19.320313 16.039063 19.339844 C 16.160156 19.449219 16.320313 19.621094 16.511719 19.851563 C 17.050781 20.5 17.300781 21.171875 17.25 21.851563 C 17.230469 22.148438 17.160156 22.441406 17.039063 22.71875 C 16.921875 23 16.78125 23.230469 16.609375 23.421875 C 16.449219 23.601563 16.308594 23.75 16.210938 23.851563 C 16.101563 23.949219 16.019531 24.019531 15.960938 24.058594 L 15.839844 24.140625 C 15.730469 24.179688 15.671875 24.199219 15.628906 24.210938 C 15.519531 24.21875 15.449219 24.230469 15.429688 24.230469 L 15.398438 24.230469 C 15.320313 24.230469 15.261719 24.21875 15.210938 24.210938 C 15.191406 24.210938 15.160156 24.210938 15.128906 24.199219 C 15.101563 24.191406 15.070313 24.191406 15.058594 24.191406 C 15.050781 24.191406 15.039063 24.191406 15.03125 24.179688 C 15.019531 24.171875 15.011719 24.171875 14.988281 24.160156 C 14.980469 24.148438 14.96875 24.148438 14.960938 24.148438 C 14.808594 24.039063 14.71875 23.980469 14.699219 23.941406 C 14.539063 23.761719 14.480469 23.558594 14.511719 23.339844 C 14.539063 23.121094 14.648438 22.949219 14.851563 22.808594 L 14.878906 22.769531 C 14.898438 22.75 14.929688 22.71875 14.96875 22.691406 L 15.089844 22.570313 L 15.21875 22.410156 L 15.339844 22.21875 L 15.429688 22 L 15.46875 21.761719 C 15.480469 21.359375 15.25 20.941406 14.78125 20.488281 C 14.589844 20.320313 14.449219 20.179688 14.339844 20.058594 C 13.789063 19.371094 13.539063 18.71875 13.578125 18.078125 Z M 14.121094 6.921875 L 14.121094 4.851563 C 14.121094 4.609375 14.210938 4.398438 14.378906 4.230469 C 14.550781 4.058594 14.761719 3.980469 14.988281 3.980469 C 15.230469 3.980469 15.441406 4.058594 15.609375 4.230469 C 15.78125 4.398438 15.859375 4.609375 15.859375 4.851563 L 15.859375 6.921875 C 15.859375 7.160156 15.78125 7.351563 15.609375 7.511719 C 15.441406 7.671875 15.238281 7.738281 15 7.738281 C 14.761719 7.738281 14.558594 7.660156 14.390625 7.511719 C 14.210938 7.351563 14.121094 7.160156 14.121094 6.921875 Z M 17.480469 17.929688 C 17.5 17.710938 17.570313 17.5 17.679688 17.289063 C 17.789063 17.078125 17.898438 16.898438 18.03125 16.761719 C 18.160156 16.621094 18.28125 16.488281 18.410156 16.378906 C 18.53125 16.269531 18.628906 16.191406 18.710938 16.128906 L 18.839844 16.058594 C 18.859375 16.039063 18.898438 16.019531 18.941406 15.980469 C 19.050781 15.941406 19.179688 15.910156 19.320313 15.910156 C 19.660156 15.910156 19.910156 16.039063 20.089844 16.289063 C 20.140625 16.359375 20.171875 16.429688 20.191406 16.519531 C 20.199219 16.539063 20.210938 16.570313 20.210938 16.601563 L 20.210938 16.710938 C 20.210938 17.019531 20.058594 17.261719 19.761719 17.410156 C 19.441406 17.621094 19.269531 17.851563 19.238281 18.101563 C 19.199219 18.441406 19.429688 18.839844 19.921875 19.300781 C 20.800781 20.070313 21.199219 20.910156 21.148438 21.800781 C 21.128906 22.101563 21.058594 22.390625 20.941406 22.671875 C 20.820313 22.949219 20.671875 23.179688 20.511719 23.371094 C 20.339844 23.558594 20.210938 23.699219 20.121094 23.800781 C 20.03125 23.898438 19.941406 23.960938 19.871094 24.011719 C 19.710938 24.109375 19.570313 24.160156 19.460938 24.171875 C 19.429688 24.179688 19.378906 24.179688 19.308594 24.179688 C 19.011719 24.179688 18.78125 24.078125 18.621094 23.878906 C 18.46875 23.710938 18.410156 23.511719 18.429688 23.289063 C 18.449219 23.070313 18.558594 22.890625 18.75 22.761719 C 18.78125 22.75 18.839844 22.699219 18.929688 22.621094 C 19.019531 22.539063 19.109375 22.410156 19.21875 22.238281 C 19.320313 22.058594 19.378906 21.890625 19.390625 21.710938 C 19.410156 21.308594 19.171875 20.890625 18.691406 20.441406 C 18.28125 20.078125 17.960938 19.691406 17.75 19.28125 C 17.511719 18.859375 17.421875 18.398438 17.480469 17.929688 Z M 19.769531 9.210938 C 19.769531 8.960938 19.851563 8.761719 20 8.609375 L 21.460938 7.128906 C 21.640625 6.960938 21.839844 6.878906 22.070313 6.878906 C 22.308594 6.878906 22.511719 6.96875 22.679688 7.140625 C 22.851563 7.308594 22.941406 7.519531 22.941406 7.75 C 22.941406 8 22.851563 8.210938 22.679688 8.371094 L 21.199219 9.808594 C 21.019531 9.980469 20.820313 10.058594 20.589844 10.058594 C 20.359375 10.058594 20.160156 9.980469 20.011719 9.808594 C 19.851563 9.648438 19.769531 9.441406 19.769531 9.210938 Z M 22.070313 14.761719 C 22.070313 14.539063 22.160156 14.339844 22.328125 14.148438 C 22.488281 13.980469 22.679688 13.898438 22.910156 13.898438 L 24.96875 13.898438 C 25.210938 13.898438 25.421875 13.988281 25.589844 14.160156 C 25.761719 14.328125 25.859375 14.53125 25.859375 14.761719 C 25.859375 15 25.769531 15.210938 25.601563 15.378906 C 25.421875 15.550781 25.21875 15.640625 24.96875 15.640625 L 22.910156 15.640625 C 22.671875 15.640625 22.460938 15.558594 22.308594 15.390625 C 22.148438 15.21875 22.070313 15.011719 22.070313 14.761719 Z M 22.070313 14.761719 "/>
</g>
</svg>

<?xml version="1.0" encoding="utf-8"?>
<!-- Generator: Adobe Illustrator 22.0.1, SVG Export Plug-In . SVG Version: 6.00 Build 0)  -->
<svg version="1.1" id="Layer_1" xmlns="http://www.w3.org/2000/svg" xmlns:xlink="http://www.w3.org/1999/xlink" x="0px" y="0px"
	 viewBox="0 0 30 30" style="enable-background:new 0 0 30 30;" xml:space="preserve">
<path d="M4.14,14.76c0-0.24,0.09-0.44,0.27-0.61c0.17-0.17,0.38-0.25,0.62-0.25h2.06c0.24,0,0.44,0.08,0.6,0.25
	c0.17,0.17,0.25,0.37,0.25,0.61c0,0.25-0.08,0.46-0.25,0.63c-0.17,0.17-0.37,0.25-0.6,0.25H5.03c-0.25,0-0.46-0.08-0.63-0.25
	C4.22,15.22,4.14,15.01,4.14,14.76z M7.06,7.74c0-0.23,0.08-0.44,0.24-0.62C7.5,6.96,7.71,6.87,7.96,6.87
	c0.21,0,0.41,0.08,0.59,0.25l1.45,1.48c0.17,0.16,0.25,0.36,0.25,0.6c0,0.24-0.08,0.44-0.25,0.6c-0.17,0.17-0.36,0.25-0.6,0.25
	c-0.26,0-0.46-0.08-0.61-0.25l-1.5-1.44C7.15,8.19,7.06,7.98,7.06,7.74z M9.67,14.76c0-0.71,0.14-1.39,0.43-2.04
	c0.28-0.65,0.67-1.22,1.14-1.69c0.48-0.47,1.05-0.85,1.7-1.13S14.28,9.47,15,9.47c0.96,0,1.84,0.24,2.66,0.72
	c0.82,0.48,1.47,1.12,1.94,1.94c0.47,0.81,0.71,1.69,0.71,2.63c0,0.15-0.01,0.29-0.03,0.42c-0.28-0.17-0.6-0.25-0.97-0.25
	c-0.24,0-0.48,0.05-0.72,0.15c0.01-0.07,0.01-0.18,0.01-0.32c0-0.98-0.35-1.81-1.06-2.5c-0.71-0.69-1.56-1.04-2.55-1.04
	c-0.99,0-1.83,0.35-2.54,1.04s-1.05,1.52-1.05,2.5v0.18c-0.29,0.02-0.57,0.1-0.84,0.25c-0.01,0.01-0.04,0.03-0.1,0.07
	s-0.12,0.09-0.19,0.14s-0.14,0.11-0.23,0.19s-0.18,0.16-0.26,0.24C9.7,15.51,9.67,15.15,9.67,14.76z M9.7,18.41v-0.15
	c-0.01-0.09,0-0.2,0.02-0.33c0.05-0.36,0.19-0.7,0.42-1.02c0.13-0.16,0.22-0.27,0.27-0.31c0.01-0.02,0.02-0.04,0.04-0.06l0.04-0.04
	c0.03-0.01,0.07-0.05,0.12-0.1c0.02-0.02,0.05-0.05,0.08-0.08s0.06-0.04,0.07-0.06c0.05-0.05,0.1-0.08,0.14-0.1l0.17-0.11
	c0.14-0.09,0.31-0.14,0.5-0.14h0.03c0.1,0,0.19,0.01,0.26,0.03c0.03,0.01,0.07,0.03,0.13,0.07v0.01c0.14,0.06,0.26,0.16,0.34,0.29
	c0.08,0.13,0.13,0.27,0.13,0.42c0,0.17-0.05,0.31-0.14,0.42c-0.06,0.09-0.14,0.17-0.22,0.23c-0.02,0.01-0.04,0.02-0.06,0.03
	c-0.02,0.01-0.04,0.02-0.04,0.02l-0.06,0.04c-0.04,0.03-0.07,0.06-0.1,0.08s-0.06,0.06-0.11,0.11c-0.04,0.05-0.08,0.09-0.11,0.14
	c-0.03,0.04-0.06,0.1-0.09,0.15c-0.03,0.06-0.05,0.12-0.05,0.17v0.15c0.04,0.15,0.08,0.27,0.11,0.36c0.07,0.14,0.18,0.28,0.34,0.44
	c0.01,0.02,0.09,0.1,0.24,0.25c0.86,0.78,1.27,1.62,1.21,2.5c-0.02,0.3-0.09,0.59-0.21,0.87c-0.12,0.28-0.26,0.51-0.43,0.7
	c-0.16,0.19-0.29,0.33-0.39,0.43c-0.1,0.09-0.18,0.16-0.25,0.21c-0.01,0.01-0.03,0.02-0.06,0.04c-0.03,0.02-0.06,0.04-0.07,0.04
	c-0.08,0.04-0.15,0.06-0.22,0.07c-0.09,0.01-0.15,0.02-0.2,0.02c-0.3,0-0.54-0.1-0.71-0.3c-0.14-0.17-0.2-0.37-0.18-0.59
	c0.02-0.22,0.13-0.4,0.33-0.53L11,22.75c0.01-0.01,0.03-0.03,0.05-0.04c0.02-0.02,0.04-0.04,0.07-0.06
	c0.03-0.02,0.06-0.05,0.08-0.08c0.03-0.03,0.06-0.07,0.08-0.1c0.03-0.04,0.06-0.08,0.08-0.12c0.03-0.04,0.06-0.09,0.08-0.14
	c0.03-0.05,0.05-0.1,0.07-0.15c0.02-0.05,0.03-0.1,0.05-0.16c0.01-0.06,0.02-0.12,0.02-0.17c0.02-0.2-0.03-0.4-0.15-0.6
	c-0.05-0.11-0.12-0.22-0.22-0.33c-0.07-0.08-0.12-0.13-0.15-0.16c-0.09-0.11-0.14-0.17-0.15-0.18c-0.02-0.01-0.04-0.03-0.07-0.06
	s-0.05-0.04-0.06-0.05c-0.15-0.14-0.26-0.26-0.34-0.36c-0.12-0.16-0.21-0.26-0.24-0.32c-0.19-0.26-0.32-0.52-0.39-0.78
	c-0.04-0.14-0.07-0.25-0.08-0.32c0-0.02-0.01-0.05-0.02-0.08S9.7,18.44,9.7,18.41z M13.58,18.08c0-0.06,0-0.1,0.01-0.14
	c0.02-0.22,0.09-0.43,0.2-0.64c0.11-0.21,0.22-0.39,0.35-0.53c0.13-0.14,0.25-0.27,0.38-0.38s0.23-0.19,0.31-0.25l0.12-0.07
	c0.15-0.09,0.32-0.14,0.5-0.14c0.11,0,0.21,0.01,0.3,0.03c0.01,0,0.02,0.01,0.05,0.02c0.03,0.02,0.05,0.03,0.06,0.04
	c0.01,0,0.02,0,0.03,0.01c0.01,0,0.03,0.02,0.07,0.05c0.2,0.12,0.32,0.3,0.38,0.54c0,0.02,0,0.04,0,0.07c0,0.02,0,0.04,0,0.05
	c0,0.03-0.01,0.07-0.02,0.12s-0.02,0.08-0.02,0.09c-0.07,0.23-0.21,0.39-0.42,0.5c-0.33,0.22-0.51,0.45-0.53,0.69
	c-0.01,0.08-0.01,0.15,0,0.22c0.02,0.12,0.08,0.25,0.17,0.39c0.11,0.16,0.19,0.27,0.24,0.32c0.16,0.16,0.25,0.25,0.28,0.27
	c0.12,0.11,0.28,0.28,0.47,0.51c0.54,0.65,0.79,1.32,0.74,2c-0.02,0.3-0.09,0.59-0.21,0.87c-0.12,0.28-0.26,0.51-0.43,0.7
	c-0.16,0.18-0.3,0.33-0.4,0.43c-0.11,0.1-0.19,0.17-0.25,0.21l-0.12,0.08c-0.11,0.04-0.17,0.06-0.21,0.07
	c-0.11,0.01-0.18,0.02-0.2,0.02h-0.03c-0.08,0-0.14-0.01-0.19-0.02c-0.02,0-0.05,0-0.08-0.01c-0.03-0.01-0.06-0.01-0.07-0.01
	c-0.01,0-0.02,0-0.03-0.01c-0.01-0.01-0.02-0.01-0.04-0.02c-0.01-0.01-0.02-0.01-0.03-0.01c-0.15-0.11-0.24-0.17-0.26-0.21
	c-0.16-0.18-0.22-0.38-0.19-0.6c0.03-0.22,0.14-0.39,0.34-0.53l0.03-0.04c0.02-0.02,0.05-0.05,0.09-0.08l0.12-0.12l0.13-0.16
	l0.12-0.19l0.09-0.22l0.04-0.24c0.01-0.4-0.22-0.82-0.69-1.27c-0.19-0.17-0.33-0.31-0.44-0.43C13.79,19.37,13.54,18.72,13.58,18.08z
	 M14.12,6.92V4.85c0-0.24,0.09-0.45,0.26-0.62c0.17-0.17,0.38-0.25,0.61-0.25c0.24,0,0.45,0.08,0.62,0.25
	c0.17,0.17,0.25,0.38,0.25,0.62v2.07c0,0.24-0.08,0.43-0.25,0.59S15.24,7.74,15,7.74c-0.24,0-0.44-0.08-0.61-0.23
	C14.21,7.35,14.12,7.16,14.12,6.92z M17.48,17.93c0.02-0.22,0.09-0.43,0.2-0.64c0.11-0.21,0.22-0.39,0.35-0.53
	c0.13-0.14,0.25-0.27,0.38-0.38c0.12-0.11,0.22-0.19,0.3-0.25l0.13-0.07c0.02-0.02,0.06-0.04,0.1-0.08
	c0.11-0.04,0.24-0.07,0.38-0.07c0.34,0,0.59,0.13,0.77,0.38c0.05,0.07,0.08,0.14,0.1,0.23c0.01,0.02,0.02,0.05,0.02,0.08v0.11
	c0,0.31-0.15,0.55-0.45,0.7c-0.32,0.21-0.49,0.44-0.52,0.69c-0.04,0.34,0.19,0.74,0.68,1.2c0.88,0.77,1.28,1.61,1.23,2.5
	c-0.02,0.3-0.09,0.59-0.21,0.87c-0.12,0.28-0.27,0.51-0.43,0.7c-0.17,0.19-0.3,0.33-0.39,0.43s-0.18,0.16-0.25,0.21
	c-0.16,0.1-0.3,0.15-0.41,0.16c-0.03,0.01-0.08,0.01-0.15,0.01c-0.3,0-0.53-0.1-0.69-0.3c-0.15-0.17-0.21-0.37-0.19-0.59
	s0.13-0.4,0.32-0.53c0.03-0.01,0.09-0.06,0.18-0.14s0.18-0.21,0.29-0.38c0.1-0.18,0.16-0.35,0.17-0.53c0.02-0.4-0.22-0.82-0.7-1.27
	c-0.41-0.36-0.73-0.75-0.94-1.16C17.51,18.86,17.42,18.4,17.48,17.93z M19.77,9.21c0-0.25,0.08-0.45,0.23-0.6l1.46-1.48
	c0.18-0.17,0.38-0.25,0.61-0.25c0.24,0,0.44,0.09,0.61,0.26s0.26,0.38,0.26,0.61c0,0.25-0.09,0.46-0.26,0.62l-1.48,1.44
	c-0.18,0.17-0.38,0.25-0.61,0.25c-0.23,0-0.43-0.08-0.58-0.25C19.85,9.65,19.77,9.44,19.77,9.21z M22.07,14.76
	c0-0.22,0.09-0.42,0.26-0.61c0.16-0.17,0.35-0.25,0.58-0.25h2.06c0.24,0,0.45,0.09,0.62,0.26s0.27,0.37,0.27,0.6
	c0,0.24-0.09,0.45-0.26,0.62c-0.18,0.17-0.38,0.26-0.63,0.26h-2.06c-0.24,0-0.45-0.08-0.6-0.25C22.15,15.22,22.07,15.01,22.07,14.76
	z"/>
</svg>
